assets/svg/browsing-history.svg

<?xml version="1.0" encoding="UTF-8"?>
<svg width="1000px" height="1000px" viewBox="0 0 1000 1000" version="1.1" xmlns="http://www.w3.org/2000/svg" xmlns:xlink="http://www.w3.org/1999/xlink">
    <!-- Generator: sketchtool 52.4 (67378) - http://www.bohemiancoding.com/sketch -->
    <title>browsing-history</title>
    <desc>Created with sketchtool.</desc>
    <g id="新版图标" stroke="none" stroke-width="1" fill="none" fill-rule="evenodd">
        <g id="browsing-history" fill="#323233">
            <g id="圆角-浏览记录-面">
                <path d="M500,944.444444 C254.540111,944.444444 55.5555556,745.459889 55.5555556,500 C55.5555556,254.540111 254.540111,55.5555556 500,55.5555556 C745.459889,55.5555556 944.444444,254.540111 944.444444,500 C944.444444,745.459889 745.459889,944.444444 500,944.444444 Z M500.002466,333.333333 C312.526794,333.333333 222.222222,492.232068 222.222222,500 C222.222222,507.776388 310.114976,666.666667 500.002466,666.666667 C689.88601,666.666667 777.777778,507.776388 777.777778,500 C777.777778,492.232068 687.473206,333.333333 500.002466,333.333333 Z M500.002343,611.111111 C438.636035,611.111111 388.888889,561.363965 388.888889,499.998594 C388.888889,438.632286 438.636035,388.888889 500.002343,388.888889 C561.363965,388.888889 611.111111,438.632286 611.111111,499.998594 C611.111111,561.363965 561.363965,611.111111 500.002343,611.111111 Z M500.002343,444.444444 C469.314584,444.444444 444.444444,469.318332 444.444444,499.997657 C444.444444,530.684479 469.314584,555.554618 500.002343,555.554618 C530.681668,555.554618 555.555556,530.684479 555.555556,499.997657 C555.555556,469.318332 530.681668,444.444444 500.002343,444.444444 Z" id="Combined-Shape"></path>
            </g>
        </g>
    </g>
</svg>

<svg width="1000" height="1000" xmlns="http://www.w3.org/2000/svg"><path d="M500 944.444C254.54 944.444 55.556 745.46 55.556 500S254.54 55.556 500 55.556 944.444 254.54 944.444 500 745.46 944.444 500 944.444zm.002-611.11c-187.475 0-277.78 158.898-277.78 166.666 0 7.776 87.893 166.667 277.78 166.667 189.884 0 277.776-158.89 277.776-166.667 0-7.768-90.305-166.667-277.776-166.667zm0 277.777c-61.366 0-111.113-49.747-111.113-111.112 0-61.367 49.747-111.11 111.113-111.11 61.362 0 111.11 49.743 111.11 111.11 0 61.365-49.748 111.112-111.11 111.112zm0-166.667c-30.687 0-55.558 24.874-55.558 55.554 0 30.686 24.87 55.557 55.558 55.557 30.68 0 55.554-24.87 55.554-55.557 0-30.68-24.874-55.554-55.554-55.554z" fill="#323233" fill-rule="evenodd"/></svg>
